X: 1
T: the Mothers Of St Ann's  (D)
M: 4/4
L: 1/8
R: strathspey
F: http://www.thesession.org/tunes/display/6372
K: D
   de \
| "D"f2a2 "A"a3g | "D"fA3 "D/f#"d3A | "G"B2d2 "Em7"G3A | "D"FAd2 "A"e2de |
| "D"f2a2 "A"a3g | "D/f#"fA3 "Bm"d3A | "G"B2d2 "A"e3d | "D"d6 :|
|: fg \
| "D"a3g "D/f#"fd3 | "G"g3f "A"ec3 | "Bm"d3c "G"d2G2 | "D/f#"A2"G"d2 "A"e2fg |
| "D"a3g "D/f#"fd3 | "G"g3f "A"eA3 | "G"B2d2 "A"e3d | "D"d6 :|


%%sep 3 1 500

